X: 807
T: Quince Dillon's High D
C:Old-Time
B: jims roots
M:C|
R: reel
Q: 1/4=100
K:D
V:1 
%C: R-68
|: (3A,B,C ||"D"D2D2 FDFA| dAde "G"dcB2| "A"A2A2 c2 (3ef^g| a2a2 "D"d'2FE|
"D"D2D2 FDFA| dAde "G"dcB2| "A"ABAG FDEF| "D"D4 z2:|
ag|:"D"fd2A d2A2| defg agf2| "C"e=c2d cAGA| ^cdef gage |
"D"ed2A d2A2| defg aba2| "A"ABcd egfe|1 "D"d2a2 a3g:|2 "D"d2a2 a3 |]
% abcbook-tune_id 6298c279d25652da670d5a67


% abcbook-boost 0
% abcbook-tablature 
% abcbook-transpose 
% abcbook-lastupdated 1654178426713
% abcbook-soundfonts 
% abcbook-repeats 1


